packages/web-icons/svgs/smile_1.svg

<svg viewBox="0 0 48 48" xmlns="http://www.w3.org/2000/svg" class="ridi_icon"><path d="M24 0C10.7 0 0 10.7 0 24s10.7 24 24 24 24-10.7 24-24S37.3 0 24 0zm9 12c1.7 0 3 1.3 3 3s-1.3 3-3 3-3-1.3-3-3 1.3-3 3-3zm-18 0c1.7 0 3 1.3 3 3s-1.3 3-3 3-3-1.3-3-3 1.3-3 3-3zm9 27c-5.5 0-10.2-2.9-12.9-7.3l3.9-2.3c1.8 3.1 5.2 5.1 9 5.1s7.2-2 9-5.1l3.9 2.3C34.2 36.1 29.5 39 24 39z"/></svg>

<?xml version="1.0" encoding="UTF-8"?>
<svg width="48px" height="48px" viewBox="0 0 48 48" version="1.1" xmlns="http://www.w3.org/2000/svg">
  <!-- Generator: Sketch 41.2 (35397) - http://www.bohemiancoding.com/sketch -->
  <title>smile_1</title>
  <desc>Created with Sketch.</desc>
  <defs></defs>
  <g id="Page-1" stroke="none" stroke-width="1" fill="none" fill-rule="evenodd">
    <g id="smile_1" fill="#000000">
      <g id="레이어_1">
        <path d="M24,0 C10.7,0 0,10.7 0,24 C0,37.3 10.7,48 24,48 C37.3,48 48,37.3 48,24 C48,10.7 37.3,0 24,0 Z M33,12 C34.7,12 36,13.3 36,15 C36,16.7 34.7,18 33,18 C31.3,18 30,16.7 30,15 C30,13.3 31.3,12 33,12 Z M15,12 C16.7,12 18,13.3 18,15 C18,16.7 16.7,18 15,18 C13.3,18 12,16.7 12,15 C12,13.3 13.3,12 15,12 Z M24,39 C18.5,39 13.8,36.1 11.1,31.7 L15,29.4 C16.8,32.5 20.2,34.5 24,34.5 C27.8,34.5 31.2,32.5 33,29.4 L36.9,31.7 C34.2,36.1 29.5,39 24,39 Z" id="Shape"></path>
      </g>
    </g>
  </g>
</svg>
